storage/app/icons/phosphoricons/regular/cactus.svg

<svg xmlns="http://www.w3.org/2000/svg" fill="currentColor" viewBox="0 0 256 256"><path d="M216 208h-48v-24h4a68.07 68.07 0 0 0 68-68 28 28 0 0 0-56 0 12 12 0 0 1-12 12h-4V56a40 40 0 0 0-80 0v32h-4a12 12 0 0 1-12-12 28 28 0 0 0-56 0 68.07 68.07 0 0 0 68 68h4v64H40a8 8 0 0 0 0 16h176a8 8 0 0 0 0-16M96 128H84a52.06 52.06 0 0 1-52-52 12 12 0 0 1 24 0 28 28 0 0 0 28 28h12a8 8 0 0 0 8-8V56a24 24 0 0 1 48 0v80a8 8 0 0 0 8 8h12a28 28 0 0 0 28-28 12 12 0 0 1 24 0 52.06 52.06 0 0 1-52 52h-12a8 8 0 0 0-8 8v32h-48v-72a8 8 0 0 0-8-8"/></svg>

<svg xmlns="http://www.w3.org/2000/svg" viewBox="0 0 256 256" fill="currentColor"><path d="M216,208H168V184h4a68.07,68.07,0,0,0,68-68,28,28,0,0,0-56,0,12,12,0,0,1-12,12h-4V56a40,40,0,0,0-80,0V88H84A12,12,0,0,1,72,76a28,28,0,0,0-56,0,68.07,68.07,0,0,0,68,68h4v64H40a8,8,0,0,0,0,16H216a8,8,0,0,0,0-16ZM96,128H84A52.06,52.06,0,0,1,32,76a12,12,0,0,1,24,0,28,28,0,0,0,28,28H96a8,8,0,0,0,8-8V56a24,24,0,0,1,48,0v80a8,8,0,0,0,8,8h12a28,28,0,0,0,28-28,12,12,0,0,1,24,0,52.06,52.06,0,0,1-52,52H160a8,8,0,0,0-8,8v32H104V136A8,8,0,0,0,96,128Z"/></svg>
